src/food-drink/food-prepared/1F95A.svg

<svg id="emoji" viewBox="0 0 72 72" xmlns="http://www.w3.org/2000/svg">
  <g id="grid">
    <path fill="#b3b3b3" d="M68,4V68H4V4H68m4-4H0V72H72V0Z"/>
    <path fill="none" stroke="#00a5ff" stroke-miterlimit="10" stroke-width="0.1" d="M12.923,10.9583H59.0769A1.9231,1.9231,0,0,1,61,12.8814V59.0352a1.9231,1.9231,0,0,1-1.9231,1.9231H12.9231A1.9231,1.9231,0,0,1,11,59.0352V12.8813A1.923,1.923,0,0,1,12.923,10.9583Z"/>
    <rect x="16" y="4" rx="2.2537" width="40" height="64" fill="none" stroke="#00a5ff" stroke-miterlimit="10" stroke-width="0.1"/>
    <rect x="16" y="4" rx="2.2537" width="40" height="64" transform="translate(72) rotate(90)" fill="none" stroke="#00a5ff" stroke-miterlimit="10" stroke-width="0.1"/>
    <circle cx="36" cy="36" r="29" fill="none" stroke="#00a5ff" stroke-miterlimit="10" stroke-width="0.1"/>
  </g>
  <g id="color">
    <path fill="#FFFFFF" stroke="none" d="M56.2373,30.0635C56,29.5479,52.4746,21.375,49.7412,16.9951C46,11,42.1475,8,36,8 c-6.1475,0-10,3-13.7402,8.9951C19.5254,21.376,16,29.5479,15.7627,30.0635C14.001,33.3164,13,37.041,13,41 c0,12.7021,10.2969,23,23,23s23-10.2979,23-23C59,37.041,57.999,33.3164,56.2373,30.0635z"/>
    <path fill="#d0cfce" stroke="none" d="M56.2373,30.0635C56,29.5479,49.9746,17.4131,49.7412,16.9951C47.667,13.833,46.25,11.9995,43.0938,9.793 c1.7861,6.0273,3.9199,13.249,4.0605,13.748c1.7578,5.4795,2.7617,11.7276,2.7617,18.3584c0,7.0791-1.1367,13.7051-3.1142,19.4072 C54.0586,57.4385,59,49.7969,59,41C59,37.041,57.999,33.3164,56.2373,30.0635z"/>
  </g>
  <g id="hair"/>
  <g id="skin"/>
  <g id="skin-shadow"/>
  <g id="line">
    <path fill="none" stroke="#000000" stroke-linecap="round" stroke-linejoin="round" stroke-miterlimit="10" stroke-width="2" d="M56.2373,30.0635C56,29.5479,52.4746,21.375,49.7412,16.9951C46,11,42.1475,8,36,8c-6.1475,0-10,3-13.7402,8.9951 C19.5254,21.376,16,29.5479,15.7627,30.0635C14.001,33.3164,13,37.041,13,41c0,12.7021,10.2969,23,23,23s23-10.2979,23-23 C59,37.041,57.999,33.3164,56.2373,30.0635z"/>
  </g>
</svg>

<svg viewBox="0 0 72 72" xmlns="http://www.w3.org/2000/svg"><path fill="#b3b3b3" d="M68 4v64H4V4h64m4-4H0v72h72V0z"/><path fill="none" stroke="#00a5ff" stroke-miterlimit="10" stroke-width=".1" d="M12.923 10.958h46.154A1.923 1.923 0 0161 12.881v46.154a1.923 1.923 0 01-1.923 1.923H12.923A1.923 1.923 0 0111 59.035V12.881a1.923 1.923 0 011.923-1.923z"/><rect x="16" y="4" rx="2.254" width="40" height="64" fill="none" stroke="#00a5ff" stroke-miterlimit="10" stroke-width=".1"/><rect x="16" y="4" rx="2.254" width="40" height="64" transform="rotate(90 36 36)" fill="none" stroke="#00a5ff" stroke-miterlimit="10" stroke-width=".1"/><circle cx="36" cy="36" r="29" fill="none" stroke="#00a5ff" stroke-miterlimit="10" stroke-width=".1"/><path d="M56.237 30.064c-.237-.516-3.762-8.689-6.496-13.069C46 11 42.148 8 36 8c-6.147 0-10 3-13.74 8.995-2.735 4.381-6.26 12.553-6.497 13.069A22.895 22.895 0 0013 41c0 12.702 10.297 23 23 23s23-10.298 23-23c0-3.959-1.001-7.684-2.763-10.936z" stroke-linecap="round" stroke-miterlimit="10" stroke-width="6" stroke="#fff" fill="none" stroke-linejoin="round"/><path fill="#FFF" d="M56.237 30.064c-.237-.516-3.762-8.689-6.496-13.069C46 11 42.148 8 36 8c-6.147 0-10 3-13.74 8.995-2.735 4.381-6.26 12.553-6.497 13.069A22.895 22.895 0 0013 41c0 12.702 10.297 23 23 23s23-10.298 23-23c0-3.959-1.001-7.684-2.763-10.936z"/><path fill="#d0cfce" d="M56.237 30.064c-.237-.516-6.262-12.65-6.496-13.069-2.074-3.162-3.491-4.996-6.647-7.202 1.786 6.027 3.92 13.249 4.06 13.748 1.758 5.48 2.762 11.728 2.762 18.358 0 7.08-1.137 13.705-3.114 19.408C54.059 57.438 59 49.797 59 41c0-3.959-1.001-7.684-2.763-10.936z"/><path fill="none" stroke="#000" stroke-linecap="round" stroke-linejoin="round" stroke-miterlimit="10" stroke-width="2" d="M56.237 30.064c-.237-.516-3.762-8.689-6.496-13.069C46 11 42.148 8 36 8c-6.147 0-10 3-13.74 8.995-2.735 4.381-6.26 12.553-6.497 13.069A22.895 22.895 0 0013 41c0 12.702 10.297 23 23 23s23-10.298 23-23c0-3.959-1.001-7.684-2.763-10.936z"/></svg>
